svg_80x80/javascript.svg

<svg viewBox="0 0 80 80" xmlns="http://www.w3.org/2000/svg">
<rect width="100%" height="100%" fill="#F6DE1E"/>
<path d="M47.6801 66L53.6801 62.49C54.0201 62.98 54.3301 63.49 54.6801 63.88C55.6186 65.1534 56.9199 66.1135 58.4135 66.6346C59.907 67.1556 61.5232 67.2133 63.0501 66.8C63.5887 66.6723 64.1023 66.456 64.5701 66.16C65.0341 65.8888 65.4265 65.5104 65.7145 65.0566C66.0025 64.6028 66.1778 64.0867 66.2258 63.5514C66.2738 63.0161 66.193 62.477 65.9902 61.9792C65.7874 61.4815 65.4685 61.0394 65.0601 60.69C64.6053 60.2886 64.0972 59.952 63.5501 59.69C62.0801 58.98 60.5501 58.32 59.0901 57.69C56.9706 56.8595 54.9962 55.6985 53.2401 54.25C52.0077 53.1578 51.059 51.7827 50.4755 50.2429C49.892 48.7031 49.6911 47.0446 49.8901 45.41C50.2401 40.73 53.5601 37.41 58.3301 36.55C60.3872 36.1777 62.4996 36.2425 64.5301 36.74C66.0304 37.1195 67.4318 37.8168 68.6395 38.7846C69.8471 39.7525 70.8329 40.9683 71.5301 42.35L65.7201 46.09C65.4101 45.65 65.1401 45.24 64.8401 44.84C64.2894 44.0516 63.5091 43.452 62.6055 43.1228C61.702 42.7936 60.7189 42.7507 59.7901 43C59.2307 43.1244 58.7143 43.3948 58.2936 43.7839C57.8729 44.1729 57.5628 44.6665 57.3951 45.2144C57.2274 45.7623 57.208 46.3449 57.3388 46.9028C57.4697 47.4607 57.7462 47.9739 58.1401 48.39C58.7226 48.9614 59.3992 49.4282 60.1401 49.77C61.7601 50.56 63.4201 51.25 65.0601 51.99C66.8728 52.7663 68.5771 53.7747 70.1301 54.99C71.4704 56.0647 72.5113 57.4666 73.1524 59.0605C73.7935 60.6544 74.0131 62.3866 73.7901 64.09C73.7009 66.1862 72.9239 68.1947 71.5791 69.8051C70.2344 71.4156 68.3967 72.5384 66.3501 73C62.2145 74.2539 57.7623 73.9443 53.8401 72.13C51.1308 70.8732 48.9501 68.7032 47.6801 66ZM21.0801 66.85L27.1501 63.17C27.5601 63.8 27.9201 64.38 28.3101 64.95C28.8464 65.808 29.6562 66.4601 30.6088 66.8013C31.5613 67.1424 32.6011 67.1525 33.5601 66.83C34.0131 66.7429 34.4357 66.5394 34.7863 66.2396C35.137 65.9398 35.4036 65.554 35.5601 65.12C35.7717 64.5206 35.9192 63.9005 36.0001 63.27C36.0352 62.7139 36.0352 62.1561 36.0001 61.6V36.77C38.5001 36.69 40.9501 36.77 43.4601 36.77C43.4962 36.9918 43.5196 37.2155 43.5301 37.44V62.22C43.5561 63.6633 43.3845 65.1033 43.0201 66.5C42.6344 68.1332 41.7999 69.626 40.6107 70.8099C39.4215 71.9938 37.9249 72.8217 36.2901 73.2C32.8928 74.1952 29.2447 73.8665 26.0801 72.28C23.8492 71.0851 22.0873 69.1717 21.0801 66.85Z" fill="#010100"/>
</svg>

<svg xmlns="http://www.w3.org/2000/svg" viewBox="0 0 80 80"><path d="M0 0h80v80H0zm47.68 66a12.72 12.72 0 006.16 6.12 17.62 17.62 0 0012.51.88 9.55 9.55 0 007.39-8.91A10 10 0 0070.08 55 22.77 22.77 0 0065 52c-1.64-.74-3.3-1.43-4.92-2.22a7.11 7.11 0 01-2-1.38 3.24 3.24 0 011.71-5.4 4.68 4.68 0 015.09 1.81c.3.4.57.81.88 1.25l5.81-3.74a10.81 10.81 0 00-7-5.61 14.9 14.9 0 00-6.2-.19c-4.77.85-8.09 4.18-8.44 8.86a10.17 10.17 0 003.35 8.84 21.55 21.55 0 005.85 3.44c1.5.66 3 1.32 4.46 2a6.57 6.57 0 011.51 1 3.37 3.37 0 01-.49 5.47 5 5 0 01-1.52.64 7.85 7.85 0 01-8.37-2.92c-.34-.44-.65-.9-1-1.39zm-26.6.83a11.23 11.23 0 005 5.43 14 14 0 0010.21.92 9 9 0 006.73-6.7 15.82 15.82 0 00.51-4.28V37.39a5.88 5.88 0 00-.07-.67H36v24.83a13.26 13.26 0 010 1.67 9 9 0 01-.43 1.85 2.66 2.66 0 01-2 1.71A4.5 4.5 0 0128.31 65c-.39-.57-.75-1.15-1.16-1.78z" fill="#f6de1e"/><path d="M47.68 66l6-3.51c.34.49.65 1 1 1.39a7.85 7.85 0 008.37 2.92 5 5 0 001.52-.64 3.37 3.37 0 00.49-5.47 6.57 6.57 0 00-1.51-1c-1.47-.71-3-1.37-4.46-2a21.55 21.55 0 01-5.85-3.44 10.17 10.17 0 01-3.35-8.84c.35-4.68 3.67-8 8.44-8.86a14.9 14.9 0 016.2.19 10.81 10.81 0 017 5.61l-5.81 3.74c-.31-.44-.58-.85-.88-1.25A4.68 4.68 0 0059.79 43a3.24 3.24 0 00-1.65 5.39 7.11 7.11 0 002 1.38c1.62.79 3.28 1.48 4.92 2.22a22.77 22.77 0 015.07 3 10 10 0 013.66 9.1A9.55 9.55 0 0166.35 73a17.62 17.62 0 01-12.51-.87A12.72 12.72 0 0147.68 66zm-26.6.85l6.07-3.68c.41.63.77 1.21 1.16 1.78a4.5 4.5 0 005.25 1.88 2.66 2.66 0 002-1.71 9 9 0 00.44-1.85 13.26 13.26 0 000-1.67V36.77c2.5-.08 4.95 0 7.46 0a5.88 5.88 0 01.07.67v24.78a15.82 15.82 0 01-.51 4.28 9 9 0 01-6.73 6.7 14 14 0 01-10.21-.92 11.23 11.23 0 01-5-5.43z" fill="#010100"/></svg>
